X:1
T:CINEMA PARADISO
T:CINEMA PARADISO
T:Love theme
T:Ennio & Andrea Morricone
T:GOM
C:Ennio
Z:GOM
L:1/8
Q:1/4=70
M:4/4
K:D
V:1 bass nm="Fagot" snm="Fag."
V:1
 z8 | z8 | z8 | z8 |"^a tempo"!mp! (D,3 F,,) (G,,D,C,B,,) | (C,E, A,,>G,,) (G,,2 F,,2- | %6
[M:2/4] F,,)F,, (A,,C,) |[M:4/4] (E,D,)(C,D,) F,3 F, | (B,,^A,,)(B,,!courtesy!=A,) G,4- | %9
 G,(E,B,A,) (A,G,)(F,E,) | (D,3 !tenuto!D,) (E,D,C,A,,) | B,,6 C,D, | %12
 C,4!<(! (C,,/D,,/E,,/F,,/ G,,/^A,,/B,,/C,/)!<)! |!mf! (D,3 F,,) (G,,D,C,B,,) | %14
 (C,E, A,,>G,,) G,,2 F,,2- |[M:2/4] F,,F,, (A,,C,) |[M:4/4] (E,D,)(C,D,) F,3 F, | %17
 (B,,^A,,)(B,,!courtesy!=A,) G,4- | G,(E,B,A,) (A,G,)(F,E,) | (D,3 !tenuto!D,) (E,D,C,A,,) | %20
 B,,6 (C,D,) | (A,,6- A,,G,,) |"^rit." (G,,4 F,,4) |"^a tempo" z!f! (F, D4) (3(FED) | %24
 (CB,)(CE,) E,2 (D,/C,/D,/)(A,,/ |[M:2/4] B,,/C,/D,/^E,/) (3(F,A,C) | %26
[M:4/4][K:tenor] (ED)(CD) (F3 A,) | (B,^A,)(B,!courtesy!=A) G4- |!>(! G(EBA) (AG)(FE)!>)! | %29
!mf! (D3 !tenuto!D) (EDCA,) | B,4- B,2 (CD) |"^rit." C8 | z8 | z8 |[M:2/4] z4 |[M:4/4] z8 | %36
 z4[K:bass]!f!"^rit." (E,,/G,,/)(B,,/E,/) (G,/B,/)(E/F/) |"^a tempo" G(EBA) (AG)(FE) | %38
 (D3 !tenuto!D) (EDCA,) | B,6 (CD) | (A,6-!>(! A,G,)!>)! |!p! (G,4 F,4- | F,4) z4 | z8 | %44
 z[K:bass]!mf! (E,!>(!B,A,) (A,G,)(F,!>)!E,) |!mp! (D,3 !tenuto!D,) (E,D,C,A,,) | %46
!<(! B,,6 (C,D,)!<)! |"^rit."!>(! (A,,6- A,,G,,)!>)! |!p! (G,,4 F,,4) | z8 | z8 |] %51

